X:1
T:March on to Victory
T:Bunyan Smith
T:March on to Victory
T:Public Domain
T:Public Domain
T:Public Domain
C:Bunyan Smith
Z:Public Domain
%%score ( 1 2 ) ( 3 4 )
L:1/8
M:4/4
K:Ab
V:1 treble 
V:2 treble 
V:3 bass 
V:4 bass 
V:1
 [CE] | [Ec]>[DB] [DB]>[CA] [CA]>[DA] [CA]>[Ec] | [Ed]>[Fd] [Gd]>[Gd] [DG]3 [DG] | %3
w: 1.~En-|list- ed in the Christ- ian ranks, A|faith- ful sol- dier be, And|
w: 2.~The|con- flict may be hard and long, But|tri- umph is as- sured, And|
w: 3.~Re-|ly- ing on the Lord of Hosts, March|on to con- quer sin, And|
w: 4.~The|joy of con- quest will be yours, When|you have o- ver- come, And|
 [CA]>[DA] [CA]>[EA] [=DG]>[DF] [_DE]>E | EFG[Gd] [Ac]>[GB] [EA]3/2 ||"^Refrain" [CA]/ | %6
w: side by side with loy- al ones March|(march on) to vic- to- ry. *||
w: Heav- en holds a rich re- ward For|(tri- als) als here en- dured. March|(march|
w: to your Lead- er glad- ly bear Each|(tro- phy) phy that you win. *||
w: af- ter war- fare, rest and peace A-|(a- wait) in God’s bright home. *||
 EFE[Fd] [Ec]>[DB] [CA]>[Ec] | EFG[Ge] [Gd]>[Gd] [DG]>[DG] | %8
w: ||
w: on) to vic- to- ry, March on (march|to vic- to- ry; Be- neath the ban-|
w: ||
w: ||
 [CA]>[DA] [CA]>[EA] [=DG]>[DF] [_DE]>E | EFG[Gd] [Ac]>[GB] AF/E/ |] %10
w: ||
w: of the Lord March on (march on) to|to- ry~(march on). * * * * * *|
w: ||
w: ||
V:2
 x | x8 | x8 | x15/2 E/ | e3 x9/2 || x/ | c3 x5 | d3 x5 | x15/2 E/ | e3 x2 A-A x |] %10
w: |||on|||||||
w: |||tri-|on||on)|ner|vic-||
w: |||tro-|||||||
w: |||wait|||||||
V:3
 [A,,A,] | [A,,A,]>[A,,A,] [A,,A,]>[A,,E,] [A,,E,]>[A,,F,] [A,,E,]>[A,,A,] | %2
 [E,G,]>[E,A,] [E,B,]>[E,B,] [E,B,]3 E, | %3
 [A,,E,]>[A,,F,] [A,,E,]>[C,A,] [B,,B,]>[B,,A,] [E,G,]>[E,G,] | %4
 G,A,B,[E,E] [A,E]>[E,D] [A,,A,C]3/2 || [A,,E,]/ | A,A,A,[A,,A,] [A,,A,]>[A,,A,] [A,,E,]>[A,,A,] | %7
 G,A,B,[E,B,] [E,B,]>[E,B,] [E,B,]>E, | %8
 [A,,E,]>[A,,F,] [A,,E,]>[C,A,] [B,,B,]>[B,,A,] [E,G,]>[E,G,] | %9
 G,A,B,[E,E] [A,E]>[E,D] [A,,A,C]D/C/ |] %10
V:4
 x | x8 | x7 E, | x8 | E,3 x9/2 || x/ | A,,3 x5 | E,3 x7/2 E,/ x | x8 | E,3 x3 A,, x |] %10

